outputs/icons/action/calendar_unavailable_round.svg

<svg xmlns="http://www.w3.org/2000/svg" width="1200" height="1200" fill="none"><path fill="#000" d="M850 150h50c55 0 100 45 100 100v250.67c0 27.61-22.385 50-50 50-26.755 0-48.605-21.02-49.935-47.445l-.065-.015V400H200v500c0 27.5 22.5 50 50 50h202.246v.55c24.063 3.61 42.516 24.38 42.516 49.45s-18.451 45.83-42.516 49.445v.555H200c-55.5 0-100-45-100-100l.5-700c0-55 44-100 99.5-100h50v-50c0-27.614 22.386-50 50-50s50 22.386 50 50v50h400v-50c0-27.614 22.385-50 50-50s50 22.386 50 50z"/><path fill="#000" fill-rule="evenodd" d="M980.345 1030.33c97.635-97.63 97.635-255.92 0-353.555-97.63-97.63-255.92-97.63-353.55 0-97.635 97.635-97.63 255.925 0 353.555s255.92 97.63 353.55 0M803.57 906.585l-53.035 53.035c-14.58 14.585-38.445 14.585-53.03 0s-14.585-38.45 0-53.035l53.03-53.03-53.03-53.035c-14.585-14.585-14.585-38.45 0-53.035 14.585-14.58 38.45-14.58 53.03 0l53.035 53.035 53.035-53.035c14.58-14.58 38.445-14.58 53.03 0 14.585 14.585 14.585 38.45 0 53.035l-53.03 53.035 53.03 53.03c14.585 14.585 14.585 38.45 0 53.035s-38.45 14.585-53.03 0z"/></svg>

<svg width="1200" height="1200" viewBox="0 0 1200 1200" fill="none" xmlns="http://www.w3.org/2000/svg"><path d="M850 150H900C955 150 1000 195 1000 250V500.67C1000 528.28 977.615 550.67 950 550.67C923.245 550.67 901.395 529.65 900.065 503.225L900 503.21V400H200V900C200 927.5 222.5 950 250 950H452.246V950.55C476.309 954.16 494.762 974.93 494.762 1000C494.762 1025.07 476.311 1045.83 452.246 1049.445V1050H200C144.5 1050 100 1005 100 950L100.5 250C100.5 195 144.5 150 200 150H250V100C250 72.386 272.386 50 300 50C327.614 50 350 72.386 350 100V150H750V100C750 72.386 772.385 50 800 50C827.615 50 850 72.386 850 100V150Z" fill="black"/><path fill-rule="evenodd" d="M980.345 1030.33C1077.98 932.7 1077.98 774.41 980.345 676.775C882.715 579.145 724.425 579.145 626.795 676.775C529.16 774.41 529.165 932.7 626.795 1030.33C724.425 1127.96 882.715 1127.96 980.345 1030.33ZM803.57 906.585L750.535 959.62C735.955 974.205 712.09 974.205 697.505 959.62C682.92 945.035 682.92 921.17 697.505 906.585L750.535 853.555L697.505 800.52C682.92 785.935 682.92 762.07 697.505 747.485C712.09 732.905 735.955 732.905 750.535 747.485L803.57 800.52L856.605 747.485C871.185 732.905 895.05 732.905 909.635 747.485C924.22 762.07 924.22 785.935 909.635 800.52L856.605 853.555L909.635 906.585C924.22 921.17 924.22 945.035 909.635 959.62C895.05 974.205 871.185 974.205 856.605 959.62L803.57 906.585Z" fill="black"/></svg>
